src/assets/images/icons/icon-facebook.svg

<svg width="40" height="41" viewBox="0 0 40 41" fill="none" xmlns="http://www.w3.org/2000/svg">
<path d="M40 20.5501C40 9.48246 31.04 0.5 20 0.5C8.96 0.5 0 9.48246 0 20.5501C0 30.2544 6.88 38.3346 16 40.1992V26.5652H12V20.5501H16V15.5376C16 11.6679 19.14 8.52005 23 8.52005H28V14.5351H24C22.9 14.5351 22 15.4373 22 16.5401V20.5501H28V26.5652H22V40.5C32.1 39.4975 40 30.9561 40 20.5501Z" fill="white"/>
</svg>

<svg xmlns="http://www.w3.org/2000/svg" width="40" height="41" fill="none"><path fill="#fff" d="M40 20.55C40 9.482 31.04.5 20 .5S0 9.482 0 20.55c0 9.704 6.88 17.785 16 19.65V26.564h-4V20.55h4v-5.012c0-3.87 3.14-7.018 7-7.018h5v6.015h-4c-1.1 0-2 .902-2 2.005v4.01h6v6.015h-6V40.5c10.1-1.002 18-9.544 18-19.95Z"/></svg>
